img/svg/icon-font/user-key.svg

<svg width="22" height="22" viewBox="0 0 22 22" fill="none" xmlns="http://www.w3.org/2000/svg">
<path d="M5.65038 20.2812H2.60789C2.24102 20.2812 2.01969 20.0765 1.92043 19.9544C1.74907 19.7436 1.68269 19.4693 1.73842 19.2017C2.63084 14.9151 6.4138 11.7846 10.781 11.683C10.8537 11.6857 10.9266 11.6875 11 11.6875C11.074 11.6875 11.1475 11.6857 11.2209 11.6829C12.2888 11.7073 13.3319 11.9081 14.3248 12.2809C14.7691 12.4478 15.2646 12.2228 15.4314 11.7785C15.5983 11.3342 15.3733 10.8387 14.929 10.6718C14.7867 10.6184 14.6435 10.5684 14.4995 10.5209C15.9218 9.45403 16.8437 7.75453 16.8437 5.84375C16.8437 2.62152 14.2223 0 11 0C7.77772 0 5.15624 2.62152 5.15624 5.84375C5.15624 7.75625 6.07972 9.45708 7.50418 10.5238C6.19918 10.9534 4.97457 11.6215 3.90284 12.503C1.93779 14.1194 0.571516 16.3739 0.0557622 18.8514C-0.105886 19.6277 0.0877309 20.425 0.586985 21.0388C1.0837 21.6497 1.82032 22 2.60789 22H5.65038C6.12501 22 6.50975 21.6153 6.50975 21.1406C6.50975 20.666 6.12501 20.2812 5.65038 20.2812ZM6.87499 5.84375C6.87499 3.5692 8.72544 1.71875 11 1.71875C13.2745 1.71875 15.125 3.5692 15.125 5.84375C15.125 8.05093 13.3824 9.85866 11.2008 9.96381C11.1339 9.9626 11.067 9.96157 11 9.96157C10.9328 9.96157 10.8656 9.96256 10.7985 9.96377C8.6172 9.85832 6.87499 8.05071 6.87499 5.84375Z" fill="#4C51CB"/>
<path d="M21.3419 14.8073C20.974 13.9845 20.1454 13.4513 19.2288 13.4492H16.5431C15.5763 13.4492 14.7328 14.019 14.3934 14.9019C14.3482 15.0193 14.293 15.1673 14.2354 15.3398H8.6088C8.37647 15.3398 8.15406 15.4339 7.9922 15.6006L6.51596 17.1212C6.19082 17.4561 6.19245 17.9893 6.51961 18.3221L8.02352 19.8523C8.18508 20.0167 8.40594 20.1093 8.63643 20.1093H11.4294C11.904 20.1093 12.2888 19.7246 12.2888 19.25C12.2888 18.7753 11.904 18.3906 11.4294 18.3906H8.99676L8.33384 17.7161L8.97223 17.0586H14.88C15.276 17.0586 15.6206 16.7881 15.7148 16.4036C15.7843 16.1197 15.8715 15.8467 15.9977 15.5186C16.0809 15.3022 16.2898 15.168 16.5451 15.168H19.2268C19.4698 15.1685 19.679 15.2992 19.7727 15.5088C20.0034 16.0249 20.2789 16.824 20.281 17.6996C20.283 18.5817 20.0078 19.3991 19.7765 19.9294C19.6833 20.1433 19.4724 20.2812 19.2369 20.2812H16.523C16.2853 20.2807 16.0626 20.1277 15.9689 19.9006C15.8684 19.657 15.7813 19.3787 15.7026 19.05C15.5922 18.5884 15.1283 18.3038 14.6669 18.4142C14.2053 18.5247 13.9206 18.9884 14.0311 19.45C14.1308 19.8668 14.245 20.2285 14.3801 20.5559C14.741 21.431 15.5806 21.9978 16.5211 22H19.2389C20.1563 21.9999 20.9854 21.4573 21.3521 20.6163C21.6491 19.9352 22.0025 18.8756 21.9997 17.6955C21.997 16.5186 21.6404 15.4753 21.3419 14.8073Z" fill="#4C51CB"/>
<path d="M18.5193 18.5625C18.9939 18.5625 19.3786 18.1777 19.3786 17.7031C19.3786 17.2285 18.9939 16.8438 18.5193 16.8438C18.0446 16.8438 17.6599 17.2285 17.6599 17.7031C17.6599 18.1777 18.0446 18.5625 18.5193 18.5625Z" fill="#4C51CB"/>
</svg>

<svg width="22" height="22" fill="none" xmlns="http://www.w3.org/2000/svg"><path d="M5.65 20.281H2.608a.873.873 0 01-.688-.327.898.898 0 01-.182-.752c.893-4.287 4.676-7.417 9.043-7.519a5.894 5.894 0 00.44 0 9.415 9.415 0 013.104.598.86.86 0 10.604-1.61 11.27 11.27 0 00-.43-.15 5.839 5.839 0 002.345-4.677A5.85 5.85 0 0011 0a5.85 5.85 0 00-5.844 5.844c0 1.912.924 3.613 2.348 4.68a11.168 11.168 0 00-3.601 1.979 11.212 11.212 0 00-3.847 6.348A2.61 2.61 0 002.608 22H5.65a.86.86 0 100-1.719zM6.875 5.844A4.13 4.13 0 0111 1.719a4.13 4.13 0 014.125 4.125 4.13 4.13 0 01-3.924 4.12 11.1 11.1 0 00-.402 0 4.13 4.13 0 01-3.924-4.12z" fill="#4C51CB"/><path d="M21.342 14.807a2.316 2.316 0 00-2.113-1.358h-2.686c-.967 0-1.81.57-2.15 1.453-.045.117-.1.265-.158.438H8.61a.86.86 0 00-.617.26l-1.476 1.521a.86.86 0 00.004 1.201l1.504 1.53a.86.86 0 00.612.257h2.793a.86.86 0 100-1.718H8.997l-.663-.675.638-.657h5.908a.86.86 0 00.835-.655 7.03 7.03 0 01.283-.885c.083-.217.292-.351.547-.351h2.682c.243 0 .452.131.546.34.23.517.506 1.316.508 2.192.002.882-.273 1.7-.505 2.23a.587.587 0 01-.54.351h-2.713a.612.612 0 01-.554-.38 5.714 5.714 0 01-.266-.851.86.86 0 00-1.672.4c.1.417.214.779.35 1.106.36.875 1.2 1.442 2.14 1.444h2.718c.917 0 1.746-.543 2.113-1.384.297-.68.65-1.74.648-2.92-.003-1.177-.36-2.22-.658-2.889z" fill="#4C51CB"/><path d="M18.52 18.563a.86.86 0 100-1.72.86.86 0 000 1.72z" fill="#4C51CB"/></svg>
